public/svgs/thin/link-horizontal.svg

<svg xmlns="http://www.w3.org/2000/svg" viewBox="0 0 640 512"><!-- Font Awesome Pro 6.0.0-alpha2 by @fontawesome - https://fontawesome.com License - https://fontawesome.com/license (Commercial License) --><path d="M128 320C66.25 320 16 269.75 16 208S66.25 96 128 96H320C381.75 96 432 146.25 432 208S381.75 320 320 320H272C267.594 320 264 323.578 264 328S267.594 336 272 336H320C390.594 336 448 278.578 448 208S390.594 80 320 80H128C57.406 80 0 137.422 0 208S57.406 336 128 336C132.406 336 136 332.422 136 328S132.406 320 128 320ZM512 176C507.594 176 504 179.578 504 184S507.594 192 512 192C573.75 192 624 242.25 624 304S573.75 416 512 416H320C258.25 416 208 365.75 208 304S258.25 192 320 192H368C372.406 192 376 188.422 376 184S372.406 176 368 176H320C249.406 176 192 233.422 192 304S249.406 432 320 432H512C582.594 432 640 374.578 640 304S582.594 176 512 176Z"/></svg>

<svg xmlns="http://www.w3.org/2000/svg" viewBox="0 0 640 512"><!--! Font Awesome Pro 6.5.1 by @fontawesome - https://fontawesome.com License - https://fontawesome.com/license (Commercial License) Copyright 2023 Fonticons, Inc. --><path d="M512 432c70.7 0 128-57.3 128-128s-57.3-128-128-128H488c-4.4 0-8 3.6-8 8s3.6 8 8 8h24c61.9 0 112 50.1 112 112s-50.1 112-112 112H320c-61.9 0-112-50.1-112-112s50.1-112 112-112h56c4.4 0 8-3.6 8-8s-3.6-8-8-8H320c-70.7 0-128 57.3-128 128s57.3 128 128 128H512zM128 80C57.3 80 0 137.3 0 208s57.3 128 128 128h24c4.4 0 8-3.6 8-8s-3.6-8-8-8H128C66.1 320 16 269.9 16 208S66.1 96 128 96H320c61.9 0 112 50.1 112 112s-50.1 112-112 112H264c-4.4 0-8 3.6-8 8s3.6 8 8 8h56c70.7 0 128-57.3 128-128s-57.3-128-128-128H128z"/></svg>
